docs/assets/images/checkmark.svg

<svg width="28" height="28" viewBox="0 0 28 28" fill="none" xmlns="http://www.w3.org/2000/svg">
<path d="M0 14C0 6.26801 6.26801 0 14 0C21.732 0 28 6.26801 28 14C28 21.732 21.732 28 14 28C6.26801 28 0 21.732 0 14Z" fill="#E6E1DA"/>
<path d="M18.32 9.04C18.86 9.46 18.98 10.18 18.56 10.72L12.54 18.8L8.76 15.38C8.28 14.96 8.22 14.24 8.64 13.76C9.06 13.28 9.78 13.22 10.26 13.64L12.06 15.26L16.72 9.34C17.08 8.74 17.86 8.62 18.32 9.04Z" fill="#03D47C"/>
</svg>

<svg xmlns="http://www.w3.org/2000/svg" width="28" height="28" fill="none" viewBox="0 0 28 28"><path fill="#e6e1da" d="M0 14C0 6.268 6.268 0 14 0s14 6.268 14 14-6.268 14-14 14S0 21.732 0 14"/><path fill="#03d47c" d="M18.32 9.04c.54.42.66 1.14.24 1.68l-6.02 8.08-3.78-3.42c-.48-.42-.54-1.14-.12-1.62s1.14-.54 1.62-.12l1.8 1.62 4.66-5.92c.36-.6 1.14-.72 1.6-.3"/></svg>
